apps/scalable/audience.svg

<svg xmlns="http://www.w3.org/2000/svg" style="isolation:isolate" width="256" height="256"><defs><filter id="a" width="270.648" height="254.338" x="-7.32" y="2.95" filterUnits="userSpaceOnUse"><feGaussianBlur xmlns="http://www.w3.org/2000/svg" in="SourceGraphic" stdDeviation="4.294"/><feOffset xmlns="http://www.w3.org/2000/svg" dy="4" result="pf_100_offsetBlur"/><feFlood xmlns="http://www.w3.org/2000/svg" flood-opacity=".4"/><feComposite xmlns="http://www.w3.org/2000/svg" in2="pf_100_offsetBlur" operator="in" result="pf_100_dropShadow"/><feBlend xmlns="http://www.w3.org/2000/svg" in="SourceGraphic" in2="pf_100_dropShadow"/></filter></defs><path fill="#666" d="M165.685 11.947c74.055 0 84.639 10.557 84.639 84.544v59.251c0 73.986-10.584 84.543-84.639 84.543h-75.37c-74.055 0-84.639-10.557-84.639-84.543V96.491c0-73.987 10.584-84.544 84.639-84.544h75.37z" filter="url(#a)"/><path fill="#333" d="M165.685 11.947c64.324 0 80.762 7.965 83.971 58.543-5.534-.093-249.79-.86-243.244-1.03C9.78 19.804 26.43 11.947 90.315 11.947h75.37zM249.54 183.467c-3.477 49.035-20.269 56.818-83.855 56.818h-75.37c-63.154 0-80.148-7.678-83.782-55.825-5.315.596 238.902-.149 243.007-.993z"/><path fill="#FDA463" d="M94.197 82.229v88.46L163 126.459"/><path fill="#F9F9F9" fill-rule="evenodd" d="M95.595 31.998l6.044 9.829-6.044 9.829H83.5l6.045-9.829-6.045-9.829M119.553 31.998l6.044 9.829-6.044 9.829h-12.095l6.045-9.829-6.045-9.829M142.71 31.998l6.045 9.829-6.045 9.829h-12.095l6.045-9.829-6.045-9.829M165.896 31.998l6.045 9.829-6.045 9.829h-12.094l6.044-9.829-6.044-9.829M95.595 220.024l6.044-9.829-6.044-9.829H83.5l6.045 9.829-6.045 9.829M119.553 220.024l6.044-9.829-6.044-9.829h-12.095l6.045 9.829-6.045 9.829M142.71 220.024l6.045-9.829-6.045-9.829h-12.095l6.045 9.829-6.045 9.829M165.896 220.024l6.045-9.829-6.045-9.829h-12.094l6.044 9.829-6.044 9.829"/><g opacity=".05"><path fill="#FFF" d="M8.476 55.74C6.729 66.667 6.158 80.255 6.158 97.205v59.251c0 73.986 10.584 84.544 84.64 84.544h75.369c55.135 0 75.078-5.874 81.675-39.397L8.476 55.74z"/></g><g opacity=".4"><linearGradient id="b" x1=".517" x2=".517" y2="1"><stop offset="0%" stop-color="#fff"/><stop offset="12.5%" stop-opacity=".098" stop-color="#fff"/><stop offset="92.5%" stop-opacity=".098"/><stop offset="100%" stop-opacity=".498"/></linearGradient><path fill="none" stroke="url(#b)" stroke-linecap="round" stroke-linejoin="round" stroke-width="4.077" d="M165.685 11.947c74.055 0 84.639 10.557 84.639 84.544v59.251c0 73.986-10.584 84.543-84.639 84.543h-75.37c-74.055 0-84.639-10.557-84.639-84.543V96.491c0-73.987 10.584-84.544 84.639-84.544h75.37z" vector-effect="non-scaling-stroke"/></g></svg>

<svg xmlns="http://www.w3.org/2000/svg" style="isolation:isolate" width="256" height="256" viewBox="0 0 256 256">
 <defs>
  <filter id="BN1A7CcjzYZV2fryFLi6yO0kNvkCRItU" width="270.648" height="254.338" x="-7.32" y="2.95" filterUnits="userSpaceOnUse">
   <feGaussianBlur xmlns="http://www.w3.org/2000/svg" in="SourceGraphic" stdDeviation="4.294"/>
   <feOffset xmlns="http://www.w3.org/2000/svg" dx="0" dy="4" result="pf_100_offsetBlur"/>
   <feFlood xmlns="http://www.w3.org/2000/svg" flood-opacity=".4"/>
   <feComposite xmlns="http://www.w3.org/2000/svg" in2="pf_100_offsetBlur" operator="in" result="pf_100_dropShadow"/>
   <feBlend xmlns="http://www.w3.org/2000/svg" in="SourceGraphic" in2="pf_100_dropShadow" mode="normal"/>
  </filter>
 </defs>
 <g filter="url(#BN1A7CcjzYZV2fryFLi6yO0kNvkCRItU)">
  <path fill="#666666" d="M 165.685 11.947 C 239.74 11.947 250.324 22.504 250.324 96.491 L 250.324 155.742 C 250.324 229.728 239.74 240.285 165.685 240.285 L 90.315 240.285 C 16.26 240.285 5.676 229.728 5.676 155.742 L 5.676 96.491 C 5.676 22.504 16.26 11.947 90.315 11.947 L 165.685 11.947 Z"/>
 </g>
 <path fill="#333333" d="M 165.685 11.947 C 230.009 11.947 246.447 19.912 249.656 70.49 C 244.122 70.397 -0.134 69.63 6.412 69.46 C 9.78 19.804 26.43 11.947 90.315 11.947 L 165.685 11.947 Z"/>
 <path fill="#333333" d="M 249.54 183.467 C 246.063 232.502 229.271 240.285 165.685 240.285 L 90.315 240.285 C 27.161 240.285 10.167 232.607 6.533 184.46 C 1.218 185.056 245.435 184.311 249.54 183.467 Z"/>
 <g>
  <path fill="#FDA463" d="M 94.197 82.229 L 94.197 170.689 L 163 126.459"/>
  <path fill="#F9F9F9" fill-rule="evenodd" d="M 95.595 31.998 L 101.639 41.827 L 95.595 51.656 L 83.5 51.656 L 89.545 41.827 L 83.5 31.998"/>
  <path fill="#F9F9F9" fill-rule="evenodd" d="M 119.553 31.998 L 125.597 41.827 L 119.553 51.656 L 107.458 51.656 L 113.503 41.827 L 107.458 31.998"/>
  <path fill="#F9F9F9" fill-rule="evenodd" d="M 142.71 31.998 L 148.755 41.827 L 142.71 51.656 L 130.615 51.656 L 136.66 41.827 L 130.615 31.998"/>
  <path fill="#F9F9F9" fill-rule="evenodd" d="M 165.896 31.998 L 171.941 41.827 L 165.896 51.656 L 153.802 51.656 L 159.846 41.827 L 153.802 31.998"/>
  <path fill="#F9F9F9" fill-rule="evenodd" d="M 95.595 220.024 L 101.639 210.195 L 95.595 200.366 L 83.5 200.366 L 89.545 210.195 L 83.5 220.024"/>
  <path fill="#F9F9F9" fill-rule="evenodd" d="M 119.553 220.024 L 125.597 210.195 L 119.553 200.366 L 107.458 200.366 L 113.503 210.195 L 107.458 220.024"/>
  <path fill="#F9F9F9" fill-rule="evenodd" d="M 142.71 220.024 L 148.755 210.195 L 142.71 200.366 L 130.615 200.366 L 136.66 210.195 L 130.615 220.024"/>
  <path fill="#F9F9F9" fill-rule="evenodd" d="M 165.896 220.024 L 171.941 210.195 L 165.896 200.366 L 153.802 200.366 L 159.846 210.195 L 153.802 220.024"/>
 </g>
 <g opacity=".05">
  <path fill="#FFFFFF" d="M 8.476 55.74 C 6.729 66.667 6.158 80.255 6.158 97.205 L 6.158 156.456 C 6.158 230.442 16.742 241 90.798 241 L 166.167 241 C 221.302 241 241.245 235.126 247.842 201.603 L 8.476 55.74 Z"/>
 </g>
 <g opacity=".4">
  <linearGradient id="_lgradient_267" x1=".517" x2=".517" y1="0" y2="1">
   <stop offset="0%" style="stop-color:rgb(255,255,255)"/>
   <stop offset="12.5%" stop-opacity=".098" style="stop-color:rgb(255,255,255)"/>
   <stop offset="92.5%" stop-opacity=".098" style="stop-color:rgb(0,0,0)"/>
   <stop offset="100%" stop-opacity=".498" style="stop-color:rgb(0,0,0)"/>
  </linearGradient>
  <path fill="none" stroke="url(#_lgradient_267)" stroke-linecap="round" stroke-linejoin="round" stroke-width="4.077" d="M 165.685 11.947 C 239.74 11.947 250.324 22.504 250.324 96.491 L 250.324 155.742 C 250.324 229.728 239.74 240.285 165.685 240.285 L 90.315 240.285 C 16.26 240.285 5.676 229.728 5.676 155.742 L 5.676 96.491 C 5.676 22.504 16.26 11.947 90.315 11.947 L 165.685 11.947 Z" vector-effect="non-scaling-stroke"/>
 </g>
</svg>
